images/basic-branching-1.svg

<?xml version="1.0" encoding="UTF-8"?>
<svg id="svg1285" version="1.1" viewBox="0 0 351 103" xmlns="http://www.w3.org/2000/svg" xmlns:cc="http://creativecommons.org/ns#" xmlns:dc="http://purl.org/dc/elements/1.1/" xmlns:rdf="http://www.w3.org/1999/02/22-rdf-syntax-ns#">
 <metadata id="metadata1291">
  <rdf:RDF>
   <cc:Work rdf:about="">
    <dc:format>image/svg+xml</dc:format>
    <dc:type rdf:resource="http://purl.org/dc/dcmitype/StillImage"/>
    <dc:title>images/basic-branching-1</dc:title>
   </cc:Work>
  </rdf:RDF>
 </metadata>
 <!-- Generator: Sketch 56.3 (81716) - https://sketch.com -->
 <title id="title1251">images/basic-branching-1</title>
 <desc id="desc1253">Created with Sketch.</desc>
 <g id="03---Basic-Branching-1" transform="translate(-4,-3)" style="fill-rule:evenodd;fill:none">
  <g id="brown" transform="translate(8,69)">
   <rect id="Rectangle-1" width="89" height="33" rx="16.5" ry="16.5" style="fill-rule:evenodd;fill:#efefe7"/>
   <text id="C6" font-size="12px" font-weight="700" style="fill:#979797;font-family:'Source Code Pro';font-size:12px;font-weight:700;text-anchor:middle"><tspan id="tspan1256" x="44.5" y="21" style="fill:gray">C0</tspan></text>
  </g>
  <path id="Line" d="m106 84h35v1h-35v4l-9-4.5 9-4.5z" style="fill-rule:nonzero;fill:#8f8981"/>
  <path id="Line-2" d="m233 86h35v1h-35v4l-9-4.5 9-4.5z" style="fill-rule:nonzero;fill:#8f8981"/>
  <path id="Line-3" d="m306 60v-32h1v32h4l-4.5 9-4.5-9z" style="fill-rule:nonzero;fill:#8f8981"/>
  <g id="g1269" transform="translate(135,69)">
   <rect id="rect1263" width="89" height="33" rx="16.5" ry="16.5" style="fill-rule:evenodd;fill:#efefe7"/>
   <text id="text1267" font-size="12px" font-weight="700" style="fill:#979797;font-family:'Source Code Pro';font-size:12px;font-weight:700;text-anchor:middle"><tspan id="tspan1265" x="44.5" y="21" style="fill:gray">C1</tspan></text>
  </g>
  <g id="g1277" transform="translate(262,69)">
   <rect id="rect1271" width="89" height="33" rx="16.5" ry="16.5" style="fill-rule:evenodd;fill:#efefe7"/>
   <text id="text1275" font-size="12px" font-weight="700" style="fill:gray;font-family:'Source Code Pro';font-size:12px;font-weight:700;text-anchor:middle"><tspan id="tspan1273" x="44.5" y="21" style="fill:gray">C2</tspan></text>
  </g>
  <g id="ref" transform="translate(263,7)">
   <rect id="Rectangle-2" transform="matrix(.83962 0 0 1 -1 0)" width="106" height="33" style="fill-rule:evenodd;fill:#f44d27"/>
   <text id="master" transform="translate(-9.4003 .316)" font-size="12px" font-weight="700" style="fill:#f0f0f0;font-family:'Source Code Pro';font-size:12px;font-weight:700;text-anchor:middle"><tspan id="tspan1280" x="53" y="20" style="fill:#f0f0f0">master</tspan></text>
  </g>
 </g>
</svg>

<?xml version="1.0"?>
<svg xmlns="http://www.w3.org/2000/svg" xmlns:xlink="http://www.w3.org/1999/xlink" width="370px" height="102px" viewBox="0 0 370 102" version="1.1">
    <!-- Generator: Sketch 56.3 (81716) - https://sketch.com -->
    <title>images/basic-branching-1</title>
    <desc>Created with Sketch.</desc>
    <g id="03---Basic-Branching-1" stroke="none" stroke-width="1" fill="none" fill-rule="evenodd">
        <g id="brown" transform="translate(8.000000, 69.000000)">
            <rect id="Rectangle-1" fill="#EFEFE7" fill-rule="evenodd" x="0" y="0" width="89" height="33" rx="16.5"/>
            <text stroke="none" font-family="Source Code Pro" font-size="12px" font-weight="900" fill="#979797" fill-opacity="1" text-anchor="middle" id="C6">
                <tspan fill="#808080" x="44.5" y="21" fill-opacity="1">C0</tspan>
            </text>
        </g>
        <path id="Line" d="M106,84 L141,84 L141,85 L106,85 L106,89 L97,84.5 L106,80 L106,84 Z" fill="#8F8981" fill-rule="nonzero"/>
        <path id="Line-2" d="M233,86 L268,86 L268,87 L233,87 L233,91 L224,86.5 L233,82 L233,86 Z" fill="#8F8981" fill-rule="nonzero"/>
        <path id="Line-3" d="M306,60 L306,28 L307,28 L307,60 L311,60 L306.5,69 L302,60 L306,60 Z" fill="#8F8981" fill-rule="nonzero"/>
        <g id="brown" transform="translate(135.000000, 69.000000)">
            <rect id="Rectangle-1" fill="#EFEFE7" fill-rule="evenodd" x="0" y="0" width="89" height="33" rx="16.5"/>
            <text stroke="none" font-family="Source Code Pro" font-size="12px" font-weight="900" fill="#979797" fill-opacity="1" text-anchor="middle" id="C6">
                <tspan fill="#808080" x="44.5" y="21" fill-opacity="1">C1</tspan>
            </text>
        </g>
        <g id="brown" transform="translate(262.000000, 69.000000)">
            <rect id="Rectangle-1" fill="#EFEFE7" fill-rule="evenodd" x="0" y="0" width="89" height="33" rx="16.5"/>
            <text stroke="none" font-family="Source Code Pro" font-size="12px" font-weight="900" fill="#979797" fill-opacity="1" text-anchor="middle" id="C6">
                <tspan fill="#808080" x="44.5" y="21" fill-opacity="1">C2</tspan>
            </text>
        </g>
        <g id="ref" transform="translate(263.000000, 7.000000)">
            <rect id="Rectangle-2" fill="#F44D27" fill-rule="evenodd" x="0" y="0" width="106" height="33"/>
            <text stroke="none" font-family="Source Code Pro" font-size="12px" font-weight="900" fill="#979797" fill-opacity="1" text-anchor="middle" id="master">
                <tspan fill="#f0f0f0" x="53" y="20" fill-opacity="1">master</tspan>
            </text>
        </g>
    </g>
</svg>
